assets/icons/facebook.svg

<svg xmlns="http://www.w3.org/2000/svg" version="1.1" xmlns:xlink="http://www.w3.org/1999/xlink" width="512" height="512" x="0" y="0" viewBox="0 0 512 512" style="enable-background:new 0 0 512 512" xml:space="preserve" class=""><g><path d="M448 0H64C28.704 0 0 28.704 0 64v384c0 35.296 28.704 64 64 64h384c35.296 0 64-28.704 64-64V64c0-35.296-28.704-64-64-64z" style="" fill="#000000" data-original="#000000" class=""></path><path d="M432 256h-80v-64c0-17.664 14.336-16 32-16h32V96h-64c-53.024 0-96 42.976-96 96v64h-64v80h64v176h96V336h48l32-80z" style="" fill="#fafafa" data-original="#fafafa"></path></g></svg>

<svg width="512" height="512" viewBox="0 0 512 512" fill="none" xmlns="http://www.w3.org/2000/svg">
<path fill-rule="evenodd" clip-rule="evenodd" d="M64 0H448C483.296 0 512 28.704 512 64V448C512 483.296 483.296 512 448 512H352V336H400L432 256H352V192C352 175.764 364.112 175.857 379.788 175.978C381.166 175.989 382.572 176 384 176H416V96H352C298.976 96 256 138.976 256 192V256H192V336H256V512H64C28.704 512 0 483.296 0 448V64C0 28.704 28.704 0 64 0Z" fill="black"/>
</svg>
